assets/Eagle/Flat/eagle_flat.svg

<svg width="32" height="32" viewBox="0 0 32 32" fill="none" xmlns="http://www.w3.org/2000/svg">
<path d="M3 15L4 11.9566C4.80297 11.3547 5.79176 11 6.86 11H10.4375V16H4L3 15Z" fill="#D3D3D3"/>
<path d="M24.8116 25.9936C25.9536 25.9936 26.2622 24.8158 25.809 24.1908L23.8555 21.8554L18.0158 21.8553C18.0158 23.8439 19.0318 25.9936 22.0773 25.9936H24.8116Z" fill="#D3D3D3"/>
<path d="M17.0523 10.1784H17.03C16.28 10.1784 15.78 9.38678 16.11 8.70542L19 6H30.24C30.247 7.61938 29.3258 9.02603 27.9759 9.71934C27.8955 11.4117 26.6337 12.7163 25 12.9577C24.9938 14.8614 23.3199 16 22.25 16H17.13C16.34 16 15.88 15.2146 16.35 14.5734L17.2025 12.9979H17.18C16.39 12.9979 15.89 12.2325 16.28 11.5411L17.0523 10.1784Z" fill="#6D4534"/>
<path d="M11.9557 17L9 22H17L11.9557 17Z" fill="#6D4534"/>
<path d="M2.71094 16.8516C3.21265 16.5672 4.00878 16 4.00878 16L3.99878 11.9531C3.47179 12.3344 2 13.6094 2 16C2 17.1395 2.20923 17.1359 2.71094 16.8516Z" fill="#F9C23C"/>
<path d="M10.5938 22.875C10.1249 22.2753 9.26562 22.2109 8.64062 22.5781C8.03586 22.9334 7.76575 23.6328 7.88281 24.1328C7.92468 24.3117 7.64905 24.4649 7.52344 24.3281C7.19894 23.9704 7 23.5463 7 23.0203C7 21.8946 7.91069 20.9793 9.0412 21.0004C9.84722 21.0109 10.559 21.5369 10.8731 22.2839C10.9359 22.4417 10.9777 22.589 10.9987 22.7362C11.0196 22.9151 10.7697 23.1001 10.5938 22.875Z" fill="#F9C23C"/>
<path d="M19 16L23.9766 22C23.9766 22 18.8882 22 17.1204 22C12.6356 22 8.99994 18.4128 8.99994 14C8.99994 9.58727 12.6356 6.00002 17.1204 6.00002C17.7772 6.00002 18.4077 5.99998 19 6.00002V16Z" fill="#A56953"/>
<path d="M6 13.5156C6 13.7918 5.77614 14.0156 5.5 14.0156C5.22386 14.0156 5 13.7918 5 13.5156C5 13.2395 5.22386 13.0156 5.5 13.0156C5.77614 13.0156 6 13.2395 6 13.5156Z" fill="#1C1C1C"/>
</svg>

<svg xmlns="http://www.w3.org/2000/svg" width="32" height="32" fill="none"><path fill="#D3D3D3" d="m3 15 1-3.043A4.75 4.75 0 0 1 6.86 11h3.577v5H4l-1-1ZM24.812 25.994c1.142 0 1.45-1.178.997-1.803l-1.954-2.336h-5.84c0 1.989 1.017 4.139 4.062 4.139h2.735Z"/><path fill="#6D4534" d="M17.052 10.178h-.022c-.75 0-1.25-.791-.92-1.473L19 6h11.24a4.16 4.16 0 0 1-2.264 3.72c-.08 1.692-1.342 2.996-2.976 3.238C24.994 14.86 23.32 16 22.25 16h-5.12c-.79 0-1.25-.785-.78-1.427l.852-1.575h-.022c-.79 0-1.29-.765-.9-1.457l.772-1.363ZM11.956 17 9 22h8l-5.044-5Z"/><path fill="#F9C23C" d="M2.71 16.852C3.214 16.567 4.01 16 4.01 16l-.01-4.047C3.472 12.334 2 13.61 2 16c0 1.14.21 1.136.71.852ZM10.594 22.875c-.47-.6-1.328-.664-1.953-.297-.605.355-.875 1.055-.758 1.555.042.179-.234.332-.36.195C7.2 23.97 7 23.546 7 23.02c0-1.125.91-2.04 2.041-2.02.806.01 1.518.537 1.832 1.284.063.158.105.305.126.452.02.18-.23.364-.405.139Z"/><path fill="#A56953" d="m19 16 4.977 6H17.12C12.636 22 9 18.413 9 14s3.636-8 8.12-8H19v10Z"/><path fill="#1C1C1C" d="M6 13.516a.5.5 0 1 1-1 0 .5.5 0 0 1 1 0Z"/></svg>
